X:1
T:Stephanos, 85.83
T:Henry Williams Baker, 1868
T:Stephanos, 85.83
T:Public Domain
C:Henry Williams Baker, 1868
Z:Public Domain
%%score ( 1 2 ) ( 3 4 )
L:1/8
M:none
K:G
V:1 treble 
V:2 treble 
V:3 bass 
V:4 bass 
V:1
 [DB]2 [DB]2 [DB]2 [DA]2 | [DB]2 [Dd]2 [Gd]2 [Dc]2 | [DB]2 [DB]2 [DA]2 [DG]2 | [DA]6 z2 | %4
 D2 (EF) [DG]2 [DF]2 | [DG]2 (AB) [Cc]2 [DB]2 | [EA]4 [DA]4 | [B,G]8 |] %8
V:2
 x8 | x8 | x8 | x8 | D2 D2 x4 | x2 D2 x4 | x8 | x8 |] %8
V:3
 [G,,G,]2 [B,,G,]2 [D,G,]2 [D,F,]2 | G,2 [F,A,]2 [E,B,]2 [F,A,]2 | G,2 [G,B,]2 [F,C]2 [G,B,]2 | %3
 [D,F,]6 z2 | [B,D]2 [A,C]2 [G,B,]2 [D,A,]2 | [G,B,]2 [F,A,]2 [E,G,]2 [D,G,]2 | [C,G,]4 F,4 | %7
 [G,,B,]8 |] %8
V:4
 x8 | G,2 x6 | G,2 x6 | x8 | x8 | x8 | x4 D,4 | x8 |] %8

